X:67
T: BEI WOEBBELIN IM FREIEN FELD
N: B0091
O: Europa, Mitteleuropa, Deutschland
R: Helden -, Ehren -, Gedaechtnis -, Kriegs - Lied
M: 4/4
L: 1/8
K: A
EEE | A2A2B2B2 | B6
B2 | =c3cd3c | =c2B2z
EEE | A2A2B2B2 | B6
B2 | =c3cd3c | =c2B2z
BBB | e2e2e2e2 | e6
e2 | =f3f=g3e | c2d2z
DDE | =F2EDE2^FG | A2B=cd2c
B | e2e2d2d=c | =c4B4 | A4z

